; HEADER_BLOCK_START
; generated by OrcaSlicer 2.3.2 on 2026-06-05 at 18:07:30
; total layer number: 100
; filament_density: 0
; filament_diameter: 1.75
; max_z_height: 20.00
; filament: 1
; HEADER_BLOCK_END

; external perimeters extrusion width = 0.42mm
; perimeters extrusion width = 0.45mm
; infill extrusion width = 0.45mm
; solid infill extrusion width = 0.42mm
; top infill extrusion width = 0.42mm
; first layer extrusion width = 0.50mm

; EXECUTABLE_BLOCK_START
M73 P0 R73
M106 S0
M106 P2 S0
;TYPE:Custom
M140 S0
M104 S0 
START_PRINT EXTRUDER_TEMP=200 BED_TEMP=55
G90
G21
M83 ; use relative distances for extrusion
M106 S0
M106 P2 S0
;LAYER_CHANGE
;Z:0.2
;HEIGHT:0.2
;_SET_FAN_SPEED_CHANGING_LAYER
SET_VELOCITY_LIMIT ACCEL=500 ACCEL_TO_DECEL=250
G1 E-.6 F2400
G1 X180.47 Y193.299 F30000
G1 Z.4
G1 Z.2
G1 E.6 F2400
;TYPE:Inner wall
;WIDTH:0.499999
G1 F3600
G1 X180.336 Y191.934 E.05211
G1 X180.336 Y108.066 E3.18754
G1 X180.47 Y106.701 E.05211
G1 X180.849 Y105.452 E.04961
G1 X181.464 Y104.301 E.0496
G1 X182.292 Y103.292 E.04961
G1 X183.301 Y102.464 E.04961
G1 X184.452 Y101.849 E.0496
G1 X185.701 Y101.47 E.04961
G1 X187.065 Y101.336 E.05211
G1 X221.014 Y101.343 E1.29024
G1 X222.299 Y101.47 E.04908
G1 X223.548 Y101.849 E.04961
G1 X224.699 Y102.464 E.0496
G1 X225.708 Y103.292 E.0496
G1 X226.536 Y104.301 E.04961
G1 X227.151 Y105.452 E.0496
G1 X227.53 Y106.701 E.0496
G1 X227.63 Y107.72 E.03891
G1 X227.664 Y108.413 E.02637
G1 X227.664 Y191.934 E3.17434
G1 X227.53 Y193.299 E.05211
G1 X227.151 Y194.548 E.04961
G1 X226.536 Y195.699 E.0496
G1 X225.708 Y196.708 E.04961
G1 X224.699 Y197.536 E.0496
G1 X223.548 Y198.151 E.0496
G1 X222.299 Y198.53 E.04961
G1 X220.934 Y198.664 E.05211
G1 X187.066 Y198.664 E1.28723
G1 X185.701 Y198.53 E.05211
G1 X184.452 Y198.151 E.04961
G1 X183.301 Y197.536 E.0496
G1 X182.292 Y196.708 E.04961
G1 X181.464 Y195.699 E.04961
G1 X180.849 Y194.548 E.04961
G1 X180.482 Y193.337 E.04808
G1 X180.02 Y193.388 F30000
G1 F3600
G1 X179.879 Y191.957 E.05468
G1 X179.879 Y108.043 E3.18925
G1 X180.02 Y106.612 E.05468
G1 X180.425 Y105.276 E.05303
G1 X181.082 Y104.046 E.05303
G1 X181.967 Y102.967 E.05303
G1 X183.046 Y102.082 E.05303
G1 X184.276 Y101.425 E.05303
G1 X185.612 Y101.02 E.05303
G1 X187.043 Y100.879 E.05467
G1 X221.036 Y100.886 E1.29195
G1 X222.388 Y101.02 E.05165
G1 X223.724 Y101.425 E.05303
G1 X224.954 Y102.082 E.05303
G1 X226.033 Y102.967 E.05303
G1 X226.918 Y104.046 E.05303
G1 X227.575 Y105.276 E.05303
G1 X227.98 Y106.611 E.05303
G1 X228.085 Y107.675 E.04062
G1 X228.121 Y108.413 E.02807
G1 X228.121 Y191.957 E3.17519
G1 X227.98 Y193.389 E.05468
G1 X227.575 Y194.724 E.05303
G1 X226.918 Y195.954 E.05303
G1 X226.033 Y197.033 E.05303
G1 X224.954 Y197.918 E.05303
G1 X223.724 Y198.575 E.05303
G1 X222.388 Y198.98 E.05303
G1 X220.957 Y199.121 E.05468
G1 X187.043 Y199.121 E1.28893
G1 X185.612 Y198.98 E.05468
G1 X184.276 Y198.575 E.05303
G1 X183.046 Y197.918 E.05303
G1 X181.967 Y197.033 E.05303
G1 X181.082 Y195.954 E.05303
G1 X180.425 Y194.724 E.05303
G1 X180.031 Y193.427 E.05151
G1 X179.548 Y193.482 F30000
;TYPE:Outer wall
G1 F3600
G1 X179.4 Y191.98 E.05736
G1 X179.4 Y108.02 E3.19103
G1 X179.548 Y106.518 E.05736
G1 X179.98 Y105.092 E.05661
G1 X180.682 Y103.779 E.05661
G1 X181.627 Y102.627 E.05661
G1 X182.779 Y101.682 E.05661
G1 X184.092 Y100.98 E.05661
G1 X185.518 Y100.548 E.05661
G1 X187.02 Y100.4 E.05736
G1 X221.06 Y100.408 E1.29374
G1 X222.482 Y100.548 E.05433
G1 X223.908 Y100.98 E.05661
G1 X225.221 Y101.682 E.05661
G1 X226.373 Y102.627 E.05661
G1 X227.318 Y103.779 E.05661
G1 X228.02 Y105.092 E.05661
G1 X228.452 Y106.518 E.05661
G1 X228.561 Y107.628 E.04241
G1 X228.6 Y108.413 E.02986
G1 X228.6 Y191.98 E3.17609
G1 X228.452 Y193.482 E.05736
G1 X228.02 Y194.908 E.05661
G1 X227.318 Y196.221 E.05661
G1 X226.373 Y197.373 E.05661
G1 X225.221 Y198.318 E.05661
G1 X223.908 Y199.02 E.05661
G1 X222.482 Y199.452 E.05661
G1 X220.98 Y199.6 E.05736
G1 X187.02 Y199.6 E1.29072
G1 X185.518 Y199.452 E.05736
M73 P0 R72
G1 X184.092 Y199.02 E.05661
G1 X182.779 Y198.318 E.05661
G1 X181.627 Y197.373 E.05661
G1 X180.682 Y196.221 E.05661
G1 X179.98 Y194.908 E.05661
G1 X179.56 Y193.521 E.05509
G1 E-.6 F2400
G1 X181.379 Y190.166 Z.4 F30000
G1 X227.127 Y105.844 Z.4
G1 Z.2
G1 E.6 F2400
;TYPE:Bottom surface
;WIDTH:0.500383
G1 F6300
G1 X223.489 Y102.206 E.19569
G1 X223.416 Y102.167 E.00314
G1 X222.536 Y101.9 E.03498
G1 X227.1 Y106.464 E.2455
G1 X227.192 Y106.768 E.0121
G1 X227.24 Y107.251 E.01844
G1 X221.749 Y101.76 E.29535
G1 X221.032 Y101.69 E.02743
G1 X227.31 Y107.968 E.33776
G1 X227.322 Y108.627 E.02504
G1 X220.381 Y101.686 E.37336
G1 X219.734 Y101.686 E.02461
G1 X227.322 Y109.273 E.40817
G1 X227.322 Y109.92 E.02461
G1 X219.087 Y101.686 E.44298
G1 X218.44 Y101.686 E.02461
G1 X227.322 Y110.567 E.47779
G1 X227.322 Y111.214 E.02461
G1 X217.793 Y101.685 E.5126
G1 X217.146 Y101.685 E.02461
G1 X227.322 Y111.861 E.54741
G1 X227.322 Y112.508 E.02461
G1 X216.499 Y101.685 E.58222
G1 X215.851 Y101.685 E.02461
G1 X227.322 Y113.155 E.61703
G1 X227.322 Y113.802 E.02461
G1 X215.204 Y101.685 E.65184
G1 X214.557 Y101.685 E.02461
G1 X227.322 Y114.449 E.68665
G1 X227.322 Y115.096 E.02461
G1 X213.91 Y101.685 E.72146
G1 X213.263 Y101.684 E.02461
G1 X227.322 Y115.743 E.75627
G1 X227.322 Y116.39 E.02461
G1 X212.616 Y101.684 E.79108
G1 X211.969 Y101.684 E.02461
G1 X227.322 Y117.037 E.82589
G1 X227.322 Y117.684 E.02461
G1 X211.322 Y101.684 E.8607
G1 X210.675 Y101.684 E.02461
G1 X227.322 Y118.331 E.89551
G1 X227.322 Y118.978 E.02461
G1 X210.028 Y101.684 E.93032
G1 X209.38 Y101.684 E.02461
G1 X227.322 Y119.625 E.96513
G1 X227.322 Y120.272 E.02461
G1 X208.733 Y101.683 E.99994
G1 X208.086 Y101.683 E.02461
G1 X227.322 Y120.919 E1.03475
G1 X227.322 Y121.566 E.02461
G1 X207.439 Y101.683 E1.06956
G1 X206.792 Y101.683 E.02461
G1 X227.322 Y122.212 E1.10437
G1 X227.322 Y122.859 E.02461
G1 X206.145 Y101.683 E1.13918
G1 X205.498 Y101.683 E.02461
G1 X227.322 Y123.506 E1.17399
G1 X227.322 Y124.153 E.02461
G1 X204.851 Y101.683 E1.2088
G1 X204.204 Y101.682 E.02461
G1 X227.322 Y124.8 E1.24361
G1 X227.322 Y125.447 E.02461
G1 X203.557 Y101.682 E1.27842
G1 X202.909 Y101.682 E.02461
G1 X227.322 Y126.094 E1.31323
G1 X227.322 Y126.741 E.02461
G1 X202.262 Y101.682 E1.34804
G1 X201.615 Y101.682 E.02461
G1 X227.322 Y127.388 E1.38285
G1 X227.322 Y128.035 E.02461
G1 X200.968 Y101.682 E1.41766
G1 X200.321 Y101.681 E.02461
G1 X227.322 Y128.682 E1.45247
G1 X227.322 Y129.329 E.02461
G1 X199.674 Y101.681 E1.48728
G1 X199.027 Y101.681 E.02461
G1 X227.322 Y129.976 E1.52209
G1 X227.322 Y130.623 E.02461
G1 X198.38 Y101.681 E1.5569
G1 X197.733 Y101.681 E.02461
G1 X227.322 Y131.27 E1.59171
G1 X227.322 Y131.917 E.02461
G1 X197.086 Y101.681 E1.62652
G1 X196.438 Y101.681 E.02461
G1 X227.322 Y132.564 E1.66133
G1 X227.322 Y133.211 E.02461
G1 X195.791 Y101.68 E1.69614
G1 X195.144 Y101.68 E.02461
G1 X227.322 Y133.858 E1.73095
G1 X227.322 Y134.505 E.02461
G1 X194.497 Y101.68 E1.76576
G1 X193.85 Y101.68 E.02461
G1 X227.322 Y135.151 E1.80057
G1 X227.322 Y135.798 E.02461
G1 X193.203 Y101.68 E1.83538
G1 X192.556 Y101.68 E.02461
G1 X227.322 Y136.445 E1.87019
G1 X227.322 Y137.092 E.02461
G1 X191.909 Y101.68 E1.905
G1 X191.262 Y101.679 E.02461
G1 X227.322 Y137.739 E1.93981
G1 X227.322 Y138.386 E.02461
G1 X190.615 Y101.679 E1.97462
G1 X189.967 Y101.679 E.02461
G1 X227.322 Y139.033 E2.00943
G1 X227.322 Y139.68 E.02461
G1 X189.32 Y101.679 E2.04424
G1 X188.673 Y101.679 E.02461
G1 X227.322 Y140.327 E2.07905
G1 X227.322 Y140.974 E.02461
G1 X188.026 Y101.679 E2.11386
G1 X187.379 Y101.679 E.02461
M73 P1 R72
G1 X227.322 Y141.621 E2.14867
G1 X227.322 Y142.268 E.02461
G1 X186.763 Y101.71 E2.18179
G1 X186.175 Y101.768 E.02251
G1 X227.322 Y142.915 E2.21347
G1 X227.322 Y143.562 E.02461
G1 X185.614 Y101.855 E2.24361
G1 X185.118 Y102.005 E.01973
G1 X227.322 Y144.209 E2.27031
G1 X227.322 Y144.856 E.02461
G1 X184.622 Y102.156 E2.29701
G1 X184.194 Y102.375 E.01827
G1 X227.322 Y145.503 E2.32
G1 X227.322 Y146.15 E.02461
G1 X183.773 Y102.601 E2.34268
G1 X183.492 Y102.751 E.01209
G1 X183.373 Y102.848 E.00586
G1 X227.322 Y146.797 E2.36416
G1 X227.322 Y147.444 E.02461
G1 X183.018 Y103.14 E2.38328
G1 X182.663 Y103.432 E.01749
G1 X227.322 Y148.091 E2.40239
G1 X227.322 Y148.737 E.02461
G1 X182.348 Y103.764 E2.4193
G1 X182.057 Y104.119 E.01749
G1 X227.322 Y149.384 E2.43499
G1 X227.322 Y150.031 E.02461
G1 X181.765 Y104.475 E2.45068
G1 X181.536 Y104.893 E.01813
G1 X227.322 Y150.678 E2.46298
G1 X227.322 Y151.325 E.02461
G1 X181.311 Y105.315 E2.4751
G1 X181.167 Y105.584 E.01161
G1 X181.113 Y105.763 E.00713
G1 X227.322 Y151.972 E2.48577
G1 X227.322 Y152.619 E.02461
G1 X180.962 Y106.26 E2.49387
G1 X180.812 Y106.756 E.01973
G1 X227.322 Y153.266 E2.50197
G1 X227.322 Y153.913 E.02461
G1 X180.751 Y107.343 E2.50521
G1 X180.693 Y107.932 E.02251
G1 X227.322 Y154.56 E2.50833
G1 X227.322 Y155.207 E.02461
G1 X180.678 Y108.564 E2.50913
G1 X180.678 Y109.211 E.02461
G1 X227.322 Y155.854 E2.50913
G1 X227.322 Y156.501 E.02461
G1 X180.678 Y109.858 E2.50913
G1 X180.678 Y110.505 E.02461
G1 X227.322 Y157.148 E2.50913
G1 X227.322 Y157.795 E.02461
G1 X180.678 Y111.152 E2.50913
G1 X180.678 Y111.799 E.02461
G1 X227.322 Y158.442 E2.50913
G1 X227.322 Y159.089 E.02461
G1 X180.678 Y112.445 E2.50913
G1 X180.678 Y113.092 E.02461
G1 X227.322 Y159.736 E2.50913
G1 X227.322 Y160.383 E.02461
G1 X180.678 Y113.739 E2.50913
G1 X180.678 Y114.386 E.02461
G1 X227.322 Y161.03 E2.50913
G1 X227.322 Y161.676 E.02461
G1 X180.678 Y115.033 E2.50913
G1 X180.678 Y115.68 E.02461
G1 X227.322 Y162.323 E2.50913
G1 X227.322 Y162.97 E.02461
G1 X180.678 Y116.327 E2.50913
G1 X180.678 Y116.974 E.02461
G1 X227.322 Y163.617 E2.50913
G1 X227.322 Y164.264 E.02461
G1 X180.678 Y117.621 E2.50913
G1 X180.678 Y118.268 E.02461
G1 X227.322 Y164.911 E2.50913
G1 X227.322 Y165.558 E.02461
G1 X180.678 Y118.915 E2.50913
G1 X180.678 Y119.562 E.02461
M73 P1 R71
G1 X227.322 Y166.205 E2.50913
G1 X227.322 Y166.852 E.02461
G1 X180.678 Y120.209 E2.50913
G1 X180.678 Y120.856 E.02461
G1 X227.322 Y167.499 E2.50913
G1 X227.322 Y168.146 E.02461
G1 X180.678 Y121.503 E2.50913
G1 X180.678 Y122.15 E.02461
G1 X227.322 Y168.793 E2.50913
G1 X227.322 Y169.44 E.02461
G1 X180.678 Y122.797 E2.50913
G1 X180.678 Y123.444 E.02461
G1 X227.322 Y170.087 E2.50913
G1 X227.322 Y170.734 E.02461
G1 X180.678 Y124.091 E2.50913
G1 X180.678 Y124.738 E.02461
G1 X227.322 Y171.381 E2.50913
G1 X227.322 Y172.028 E.02461
G1 X180.678 Y125.385 E2.50913
G1 X180.678 Y126.031 E.02461
G1 X227.322 Y172.675 E2.50913
G1 X227.322 Y173.322 E.02461
G1 X180.678 Y126.678 E2.50913
G1 X180.678 Y127.325 E.02461
G1 X227.322 Y173.969 E2.50913
G1 X227.322 Y174.615 E.02461
G1 X180.678 Y127.972 E2.50913
G1 X180.678 Y128.619 E.02461
G1 X227.322 Y175.262 E2.50913
G1 X227.322 Y175.909 E.02461
G1 X180.678 Y129.266 E2.50913
G1 X180.678 Y129.913 E.02461
M73 P2 R71
G1 X227.322 Y176.556 E2.50913
G1 X227.322 Y177.203 E.02461
G1 X180.678 Y130.56 E2.50913
G1 X180.678 Y131.207 E.02461
G1 X227.322 Y177.85 E2.50913
G1 X227.322 Y178.497 E.02461
G1 X180.678 Y131.854 E2.50913
G1 X180.678 Y132.501 E.02461
G1 X227.322 Y179.144 E2.50913
G1 X227.322 Y179.791 E.02461
G1 X180.678 Y133.148 E2.50913
G1 X180.678 Y133.795 E.02461
G1 X227.322 Y180.438 E2.50913
G1 X227.322 Y181.085 E.02461
G1 X180.678 Y134.442 E2.50913
G1 X180.678 Y135.089 E.02461
G1 X227.322 Y181.732 E2.50913
G1 X227.322 Y182.379 E.02461
G1 X180.678 Y135.736 E2.50913
G1 X180.678 Y136.383 E.02461
G1 X227.322 Y183.026 E2.50913
G1 X227.322 Y183.673 E.02461
G1 X180.678 Y137.03 E2.50913
G1 X180.678 Y137.677 E.02461
G1 X227.322 Y184.32 E2.50913
G1 X227.322 Y184.967 E.02461
G1 X180.678 Y138.324 E2.50913
G1 X180.678 Y138.97 E.02461
G1 X227.322 Y185.614 E2.50913
G1 X227.322 Y186.261 E.02461
G1 X180.678 Y139.617 E2.50913
G1 X180.678 Y140.264 E.02461
G1 X227.322 Y186.908 E2.50913
G1 X227.322 Y187.554 E.02461
G1 X180.678 Y140.911 E2.50913
G1 X180.678 Y141.558 E.02461
G1 X227.322 Y188.201 E2.50913
G1 X227.322 Y188.848 E.02461
G1 X180.678 Y142.205 E2.50913
G1 X180.678 Y142.852 E.02461
G1 X227.322 Y189.495 E2.50913
G1 X227.322 Y190.142 E.02461
G1 X180.678 Y143.499 E2.50913
G1 X180.678 Y144.146 E.02461
G1 X227.322 Y190.789 E2.50913
G1 X227.322 Y191.436 E.02461
G1 X180.678 Y144.793 E2.50913
G1 X180.678 Y145.44 E.02461
G1 X227.307 Y192.068 E2.50833
G1 X227.249 Y192.657 E.02251
G1 X180.678 Y146.087 E2.50521
G1 X180.678 Y146.734 E.02461
G1 X227.188 Y193.244 E2.50197
G1 X227.038 Y193.74 E.01973
G1 X180.678 Y147.381 E2.49387
G1 X180.678 Y148.028 E.02461
G1 X226.887 Y194.237 E2.48577
G1 X226.833 Y194.416 E.00713
G1 X226.689 Y194.685 E.01161
G1 X180.678 Y148.675 E2.4751
G1 X180.678 Y149.322 E.02461
G1 X226.464 Y195.107 E2.46298
G1 X226.235 Y195.525 E.01813
G1 X180.678 Y149.969 E2.45068
G1 X180.678 Y150.616 E.02461
G1 X225.943 Y195.881 E2.43499
G1 X225.652 Y196.236 E.01749
G1 X180.678 Y151.263 E2.4193
G1 X180.678 Y151.909 E.02461
G1 X225.337 Y196.568 E2.40239
G1 X224.982 Y196.86 E.01749
G1 X180.678 Y152.556 E2.38328
G1 X180.678 Y153.203 E.02461
G1 X224.627 Y197.152 E2.36416
G1 X224.508 Y197.249 E.00586
G1 X224.227 Y197.399 E.01209
G1 X180.678 Y153.85 E2.34268
G1 X180.678 Y154.497 E.02461
G1 X223.806 Y197.625 E2.32
G1 X223.378 Y197.844 E.01827
G1 X180.678 Y155.144 E2.29701
G1 X180.678 Y155.791 E.02461
G1 X222.882 Y197.995 E2.27031
G1 X222.386 Y198.145 E.01973
G1 X180.678 Y156.438 E2.24361
G1 X180.678 Y157.085 E.02461
G1 X221.826 Y198.232 E2.21347
G1 X221.237 Y198.29 E.02251
G1 X180.678 Y157.732 E2.18179
G1 X180.678 Y158.379 E.02461
G1 X220.621 Y198.322 E2.14868
G1 X219.974 Y198.322 E.02461
G1 X180.678 Y159.026 E2.11388
G1 X180.678 Y159.673 E.02461
G1 X219.327 Y198.322 E2.07907
G1 X218.68 Y198.322 E.02461
G1 X180.678 Y160.32 E2.04427
G1 X180.678 Y160.967 E.02461
G1 X218.033 Y198.322 E2.00947
G1 X217.386 Y198.322 E.02461
G1 X180.678 Y161.614 E1.97467
G1 X180.678 Y162.261 E.02461
G1 X216.739 Y198.322 E1.93987
G1 X216.092 Y198.322 E.02461
G1 X180.678 Y162.908 E1.90506
G1 X180.678 Y163.555 E.02461
G1 X215.445 Y198.322 E1.87026
G1 X214.798 Y198.322 E.02461
G1 X180.678 Y164.202 E1.83546
G1 X180.678 Y164.848 E.02461
M73 P3 R71
G1 X214.152 Y198.322 E1.80066
G1 X213.505 Y198.322 E.02461
G1 X180.678 Y165.495 E1.76585
G1 X180.678 Y166.142 E.02461
G1 X212.858 Y198.322 E1.73105
G1 X212.211 Y198.322 E.02461
G1 X180.678 Y166.789 E1.69625
G1 X180.678 Y167.436 E.02461
G1 X211.564 Y198.322 E1.66145
G1 X210.917 Y198.322 E.02461
G1 X180.678 Y168.083 E1.62665
G1 X180.678 Y168.73 E.02461
M73 P3 R70
G1 X210.27 Y198.322 E1.59184
G1 X209.623 Y198.322 E.02461
G1 X180.678 Y169.377 E1.55704
G1 X180.678 Y170.024 E.02461
G1 X208.976 Y198.322 E1.52224
G1 X208.329 Y198.322 E.02461
G1 X180.678 Y170.671 E1.48744
G1 X180.678 Y171.318 E.02461
G1 X207.682 Y198.322 E1.45264
G1 X207.035 Y198.322 E.02461
G1 X180.678 Y171.965 E1.41783
G1 X180.678 Y172.612 E.02461
G1 X206.388 Y198.322 E1.38303
G1 X205.741 Y198.322 E.02461
G1 X180.678 Y173.259 E1.34823
G1 X180.678 Y173.906 E.02461
G1 X205.094 Y198.322 E1.31343
G1 X204.447 Y198.322 E.02461
G1 X180.678 Y174.553 E1.27862
G1 X180.678 Y175.2 E.02461
G1 X203.8 Y198.322 E1.24382
G1 X203.153 Y198.322 E.02461
G1 X180.678 Y175.847 E1.20902
G1 X180.678 Y176.494 E.02461
G1 X202.506 Y198.322 E1.17422
G1 X201.859 Y198.322 E.02461
G1 X180.678 Y177.141 E1.13942
G1 X180.678 Y177.787 E.02461
G1 X201.213 Y198.322 E1.10461
G1 X200.566 Y198.322 E.02461
G1 X180.678 Y178.434 E1.06981
G1 X180.678 Y179.081 E.02461
G1 X199.919 Y198.322 E1.03501
G1 X199.272 Y198.322 E.02461
G1 X180.678 Y179.728 E1.00021
G1 X180.678 Y180.375 E.02461
G1 X198.625 Y198.322 E.96541
G1 X197.978 Y198.322 E.02461
G1 X180.678 Y181.022 E.9306
G1 X180.678 Y181.669 E.02461
G1 X197.331 Y198.322 E.8958
G1 X196.684 Y198.322 E.02461
G1 X180.678 Y182.316 E.861
G1 X180.678 Y182.963 E.02461
G1 X196.037 Y198.322 E.8262
G1 X195.39 Y198.322 E.02461
G1 X180.678 Y183.61 E.7914
G1 X180.678 Y184.257 E.02461
G1 X194.743 Y198.322 E.75659
G1 X194.096 Y198.322 E.02461
G1 X180.678 Y184.904 E.72179
G1 X180.678 Y185.551 E.02461
G1 X193.449 Y198.322 E.68699
G1 X192.802 Y198.322 E.02461
G1 X180.678 Y186.198 E.65219
