; HEADER_BLOCK_START
; generated by OrcaSlicer 2.3.2 on 2026-06-06 at 01:37:03
; total layer number: 50
; filament_density: 0
; filament_diameter: 1.75
; max_z_height: 10.00
; filament: 1
; HEADER_BLOCK_END

; external perimeters extrusion width = 0.42mm
; perimeters extrusion width = 0.45mm
; infill extrusion width = 0.45mm
; solid infill extrusion width = 0.42mm
; top infill extrusion width = 0.42mm
; first layer extrusion width = 0.50mm

; EXECUTABLE_BLOCK_START
M73 P0 R91
M106 S0
M106 P2 S0
;TYPE:Custom
M140 S0
M104 S0 
START_PRINT EXTRUDER_TEMP=200 BED_TEMP=55
G90
G21
M83 ; use relative distances for extrusion
M106 S0
M106 P2 S0
;LAYER_CHANGE
;Z:0.2
;HEIGHT:0.2
;_SET_FAN_SPEED_CHANGING_LAYER
SET_VELOCITY_LIMIT ACCEL=500 ACCEL_TO_DECEL=250
G1 E-.6 F2400
G1 X54.292 Y181.874 F30000
G1 Z.4
G1 Z.2
G1 E.6 F2400
;TYPE:Inner wall
;WIDTH:0.499999
G1 F3600
G1 X54.19 Y181.573 E.01207
G1 X53.954 Y181.279 E.01433
G1 X53.658 Y181.088 E.01336
G1 X53.193 Y180.989 E.01808
G1 X51.336 Y180.989 E.07059
G1 X51.336 Y179.661 E.0505
G1 X53.193 Y179.661 E.07059
G1 X53.658 Y179.562 E.01808
G1 X53.954 Y179.371 E.01336
G1 X54.108 Y179.202 E.0087
G1 X54.263 Y178.918 E.0123
G1 X54.336 Y178.518 E.01545
G1 X54.336 Y121.348 E2.1728
G1 X54.187 Y120.919 E.01729
G1 X53.949 Y120.625 E.01436
G1 X53.654 Y120.437 E.0133
G1 X53.193 Y120.339 E.01791
G1 X51.336 Y120.339 E.07059
G1 X51.336 Y119.011 E.0505
G1 X53.193 Y119.011 E.07059
G1 X53.654 Y118.913 E.01791
G1 X53.949 Y118.725 E.0133
G1 X54.105 Y118.557 E.0087
G1 X54.262 Y118.272 E.01237
G1 X54.336 Y117.868 E.01561
G1 X54.336 Y97.975 E.75607
G1 X54.172 Y97.543 E.01752
G1 X53.924 Y97.254 E.01451
G1 X53.632 Y97.077 E.01297
G1 X53.193 Y96.989 E.01701
G1 X51.336 Y96.989 E.07059
G1 X51.336 Y95.661 E.0505
G1 X53.193 Y95.661 E.07059
G1 X53.632 Y95.573 E.01701
G1 X53.924 Y95.396 E.01297
G1 X54.085 Y95.232 E.00873
G1 X54.274 Y94.889 E.0149
G1 X54.336 Y94.518 E.0143
G1 X54.336 Y87.066 E.28323
G1 X54.489 Y85.506 E.05956
G1 X54.925 Y84.069 E.05706
G1 X55.633 Y82.745 E.05706
G1 X56.585 Y81.585 E.05706
G1 X57.745 Y80.633 E.05706
G1 X59.069 Y79.925 E.05706
G1 X60.506 Y79.489 E.05706
G1 X62.066 Y79.336 E.05956
G1 X78.652 Y79.336 E.63038
G1 X79.082 Y79.187 E.0173
G1 X79.375 Y78.948 E.01437
G1 X79.564 Y78.654 E.01329
G1 X79.661 Y78.193 E.0179
G1 X79.661 Y76.336 E.07059
G1 X80.989 Y76.336 E.0505
G1 X80.989 Y78.193 E.07059
G1 X81.086 Y78.654 E.0179
G1 X81.275 Y78.948 E.01329
G1 X81.443 Y79.104 E.00871
G1 X81.728 Y79.262 E.01238
G1 X82.132 Y79.336 E.01562
G1 X102.01 Y79.336 E.7555
G1 X102.436 Y79.184 E.01717
G1 X102.729 Y78.944 E.0144
G1 X102.915 Y78.65 E.01324
G1 X103.011 Y78.193 E.01774
G1 X103.011 Y76.336 E.07059
G1 X104.339 Y76.336 E.0505
G1 X104.339 Y78.193 E.07059
G1 X104.435 Y78.65 E.01774
G1 X104.621 Y78.944 E.01324
G1 X104.788 Y79.101 E.00871
G1 X105.126 Y79.279 E.01452
G1 X105.482 Y79.336 E.01369
G1 X194.66 Y79.336 E3.38933
G1 X195.086 Y79.184 E.01717
G1 X195.379 Y78.944 E.0144
G1 X195.565 Y78.65 E.01324
G1 X195.661 Y78.193 E.01774
G1 X195.661 Y76.336 E.07059
G1 X196.989 Y76.336 E.0505
G1 X196.989 Y78.193 E.07059
G1 X197.085 Y78.65 E.01774
G1 X197.271 Y78.944 E.01324
G1 X197.438 Y79.101 E.00871
G1 X197.776 Y79.279 E.01452
G1 X198.132 Y79.336 E.01369
G1 X217.085 Y79.336 E.72034
G1 X218.054 Y79.32 E.03683
G1 X218.44 Y79.182 E.01557
G1 X218.732 Y78.94 E.01442
G1 X218.917 Y78.646 E.01319
G1 X219.011 Y78.193 E.0176
G1 X219.011 Y76.336 E.07059
G1 X220.339 Y76.336 E.0505
G1 X220.339 Y78.193 E.07059
G1 X220.433 Y78.646 E.0176
G1 X220.618 Y78.94 E.01319
G1 X220.784 Y79.098 E.00872
G1 X221.124 Y79.278 E.0146
G1 X221.482 Y79.336 E.0138
G1 X237.934 Y79.336 E.62529
G1 X239.494 Y79.489 E.05956
G1 X240.931 Y79.925 E.05706
G1 X242.255 Y80.633 E.05706
G1 X243.415 Y81.585 E.05706
G1 X244.367 Y82.745 E.05706
G1 X245.075 Y84.069 E.05706
G1 X245.511 Y85.506 E.05706
G1 X245.625 Y86.668 E.04438
G1 X245.664 Y87.465 E.03032
G1 X245.664 Y98.795 E.43062
G1 X245.78 Y99.194 E.01576
G1 X246.024 Y99.525 E.01565
G1 X246.351 Y99.741 E.01489
G1 X246.807 Y99.836 E.0177
G1 X248.664 Y99.836 E.07059
G1 X248.664 Y116.164 E.6206
G1 X246.807 Y116.164 E.07059
G1 X246.545 Y116.195 E.01002
G1 X246.209 Y116.334 E.01383
G1 X245.917 Y116.591 E.0148
G1 X245.735 Y116.912 E.01401
G1 X245.664 Y117.307 E.01526
G1 X245.67 Y182.807 E2.48941
G1 X245.78 Y183.194 E.01527
G1 X246.024 Y183.525 E.01564
G1 X246.351 Y183.741 E.01489
G1 X246.807 Y183.836 E.0177
G1 X248.664 Y183.836 E.07059
G1 X248.664 Y200.164 E.6206
G1 X246.807 Y200.164 E.07059
G1 X246.545 Y200.195 E.01002
G1 X246.209 Y200.334 E.01383
G1 X245.917 Y200.591 E.0148
G1 X245.739 Y200.901 E.01357
G1 X245.664 Y201.307 E.0157
G1 X245.664 Y212.934 E.44191
G1 X245.511 Y214.494 E.05956
G1 X245.075 Y215.931 E.05706
G1 X244.367 Y217.255 E.05706
G1 X243.415 Y218.415 E.05706
G1 X242.255 Y219.367 E.05706
G1 X240.931 Y220.075 E.05706
G1 X239.494 Y220.511 E.05706
G1 X237.934 Y220.664 E.05956
G1 X217.21 Y220.664 E.78767
G1 X216.807 Y220.78 E.01592
G1 X216.475 Y221.024 E.01568
G1 X216.259 Y221.351 E.01489
G1 X216.164 Y221.807 E.0177
G1 X216.164 Y223.664 E.07059
G1 X199.836 Y223.664 E.6206
G1 X199.836 Y221.807 E.07059
G1 X199.805 Y221.545 E.01002
G1 X199.666 Y221.209 E.01383
G1 X199.409 Y220.917 E.0148
G1 X199.098 Y220.739 E.01361
G1 X198.693 Y220.664 E.01565
G1 X101.209 Y220.664 E3.705
G1 X100.807 Y220.78 E.01589
G1 X100.475 Y221.024 E.01567
G1 X100.259 Y221.351 E.01489
G1 X100.164 Y221.807 E.0177
G1 X100.164 Y223.664 E.07059
G1 X83.836 Y223.664 E.6206
G1 X83.836 Y221.807 E.07059
G1 X83.805 Y221.545 E.01002
G1 X83.666 Y221.209 E.01383
G1 X83.409 Y220.917 E.0148
G1 X83.098 Y220.739 E.01361
G1 X82.693 Y220.664 E.01566
G1 X62.066 Y220.664 E.78397
G1 X60.506 Y220.511 E.05956
G1 X59.069 Y220.075 E.05706
G1 X57.745 Y219.367 E.05706
G1 X56.585 Y218.415 E.05706
G1 X55.633 Y217.255 E.05706
G1 X54.925 Y215.931 E.05706
G1 X54.489 Y214.494 E.05706
G1 X54.375 Y213.332 E.04438
G1 X54.336 Y212.535 E.03032
G1 X54.336 Y205.325 E.27404
G1 X54.172 Y204.893 E.01752
G1 X53.924 Y204.604 E.01451
G1 X53.632 Y204.427 E.01297
G1 X53.193 Y204.339 E.01701
G1 X51.336 Y204.339 E.07059
G1 X51.336 Y203.011 E.0505
G1 X53.193 Y203.011 E.07059
G1 X53.632 Y202.923 E.01701
G1 X53.924 Y202.746 E.01297
G1 X54.085 Y202.582 E.00873
G1 X54.274 Y202.239 E.0149
G1 X54.336 Y201.868 E.0143
G1 X54.336 Y182.799 E.72474
G1 X54.323 Y181.963 E.03177
G1 X54.305 Y181.912 E.00207
G1 X53.869 Y182.092 F30000
G1 F3600
G1 X53.869 Y182.016 E.00292
G1 X53.742 Y181.722 E.01216
G1 X53.472 Y181.506 E.01313
G1 X53.193 Y181.446 E.01085
G1 X50.879 Y181.446 E.08796
G1 X50.879 Y179.204 E.08525
G1 X53.193 Y179.204 E.08796
G1 X53.472 Y179.144 E.01085
G1 X53.649 Y179.03 E.00802
G1 X53.819 Y178.798 E.01089
G1 X53.879 Y178.518 E.0109
G1 X53.879 Y121.388 E2.17131
G1 X53.74 Y121.069 E.01322
G1 X53.47 Y120.855 E.0131
G1 X53.193 Y120.796 E.01075
G1 X50.879 Y120.796 E.08796
G1 X50.879 Y118.554 E.08525
G1 X53.193 Y118.554 E.08796
G1 X53.47 Y118.495 E.01075
G1 X53.646 Y118.382 E.00798
G1 X53.817 Y118.151 E.01092
G1 X53.879 Y117.868 E.01101
G1 X53.879 Y98.019 E.75439
G1 X53.728 Y97.703 E.01329
G1 X53.456 Y97.499 E.01292
G1 X53.193 Y97.446 E.01021
G1 X50.879 Y97.446 E.08796
G1 X50.879 Y95.204 E.08525
G1 X53.193 Y95.204 E.08796
G1 X53.456 Y95.151 E.01021
G1 X53.631 Y95.045 E.00778
G1 X53.811 Y94.815 E.01109
G1 X53.879 Y94.518 E.01158
G1 X53.879 Y87.043 E.28409
G1 X54.039 Y85.416 E.06213
G1 X54.501 Y83.894 E.06048
G1 X55.251 Y82.49 E.06048
G1 X56.26 Y81.26 E.06048
G1 X57.49 Y80.251 E.06048
G1 X58.894 Y79.501 E.06048
G1 X60.416 Y79.039 E.06048
G1 X62.043 Y78.879 E.06213
G1 X78.612 Y78.879 E.62973
G1 X78.932 Y78.74 E.01323
G1 X79.145 Y78.469 E.0131
G1 X79.204 Y78.193 E.01074
G1 X79.204 Y75.879 E.08796
G1 X81.446 Y75.879 E.08525
G1 X81.446 Y78.193 E.08796
G1 X81.505 Y78.469 E.01074
G1 X81.618 Y78.646 E.00798
G1 X81.849 Y78.817 E.01092
G1 X82.132 Y78.879 E.01102
G1 X101.969 Y78.879 E.75394
G1 X102.284 Y78.738 E.01311
G1 X102.496 Y78.467 E.01307
G1 X102.554 Y78.193 E.01064
G1 X102.554 Y75.879 E.08796
G1 X104.796 Y75.879 E.08525
G1 X104.796 Y78.193 E.08796
G1 X104.854 Y78.467 E.01064
G1 X104.965 Y78.644 E.00794
G1 X105.196 Y78.816 E.01095
G1 X105.482 Y78.879 E.01112
G1 X194.619 Y78.879 E3.38778
G1 X194.934 Y78.738 E.01311
G1 X195.146 Y78.467 E.01307
G1 X195.204 Y78.193 E.01064
G1 X195.204 Y75.879 E.08796
G1 X197.446 Y75.879 E.08525
G1 X197.446 Y78.193 E.08796
G1 X197.504 Y78.467 E.01064
G1 X197.615 Y78.644 E.00794
G1 X197.846 Y78.816 E.01095
G1 X198.132 Y78.879 E.01112
G1 X217.998 Y78.866 E.75502
G1 X218.287 Y78.736 E.01204
G1 X218.497 Y78.465 E.01304
G1 X218.554 Y78.193 E.01056
G1 X218.554 Y75.879 E.08796
G1 X220.796 Y75.879 E.08525
G1 X220.796 Y78.193 E.08796
G1 X220.853 Y78.465 E.01056
G1 X220.963 Y78.641 E.00791
G1 X221.194 Y78.815 E.01098
G1 X221.482 Y78.879 E.0112
G1 X237.957 Y78.879 E.62614
G1 X239.584 Y79.039 E.06213
G1 X241.106 Y79.501 E.06048
G1 X242.51 Y80.251 E.06048
G1 X243.74 Y81.26 E.06048
G1 X244.749 Y82.49 E.06048
G1 X245.499 Y83.894 E.06048
G1 X245.961 Y85.416 E.06048
G1 X246.121 Y87.043 E.06213
G1 X246.121 Y98.693 E.44276
G1 X246.147 Y98.878 E.00712
G1 X246.301 Y99.155 E.01204
G1 X246.534 Y99.322 E.01087
G1 X246.807 Y99.379 E.01062
G1 X249.121 Y99.379 E.08796
G1 X249.121 Y116.621 E.65534
G1 X246.688 Y116.621 E.09249
G1 X246.385 Y116.767 E.01278
G1 X246.191 Y117.007 E.01172
G1 X246.121 Y117.307 E.01172
G1 X246.121 Y181.875 E2.45398
G1 X246.148 Y182.881 E.03827
G1 X246.301 Y183.155 E.01193
G1 X246.534 Y183.322 E.01087
G1 X246.807 Y183.379 E.01062
G1 X249.121 Y183.379 E.08796
G1 X249.121 Y200.621 E.65534
G1 X246.688 Y200.621 E.09249
G1 X246.385 Y200.767 E.01278
G1 X246.191 Y201.007 E.01172
G1 X246.121 Y201.307 E.01172
G1 X246.121 Y212.957 E.44276
G1 X245.961 Y214.584 E.06213
G1 X245.499 Y216.106 E.06048
G1 X244.749 Y217.51 E.06048
G1 X243.74 Y218.74 E.06048
G1 X242.51 Y219.749 E.06048
G1 X241.106 Y220.499 E.06048
G1 X239.584 Y220.961 E.06048
G1 X237.957 Y221.121 E.06213
G1 X217.167 Y221.121 E.79013
G1 X216.845 Y221.301 E.01404
G1 X216.678 Y221.534 E.01087
G1 X216.621 Y221.807 E.01062
G1 X216.621 Y224.121 E.08796
G1 X199.379 Y224.121 E.65534
G1 X199.379 Y221.688 E.09249
G1 X199.233 Y221.385 E.01278
G1 X198.993 Y221.191 E.01174
G1 X198.693 Y221.121 E.0117
G1 X101.307 Y221.121 E3.70127
G1 X101.121 Y221.147 E.00713
G1 X100.845 Y221.301 E.01203
G1 X100.678 Y221.534 E.01087
G1 X100.621 Y221.807 E.01062
G1 X100.621 Y224.121 E.08796
G1 X83.379 Y224.121 E.65534
G1 X83.379 Y221.688 E.09249
G1 X83.233 Y221.385 E.01278
G1 X82.993 Y221.191 E.01174
G1 X82.693 Y221.121 E.0117
G1 X62.043 Y221.121 E.78482
G1 X60.416 Y220.961 E.06213
G1 X58.894 Y220.499 E.06048
G1 X57.49 Y219.749 E.06048
G1 X56.26 Y218.74 E.06048
G1 X55.251 Y217.51 E.06048
G1 X54.501 Y216.106 E.06048
G1 X54.039 Y214.584 E.06048
G1 X53.92 Y213.377 E.04609
G1 X53.879 Y212.535 E.03203
G1 X53.879 Y205.369 E.27236
G1 X53.728 Y205.053 E.01329
G1 X53.456 Y204.849 E.01292
G1 X53.193 Y204.796 E.01021
G1 X50.879 Y204.796 E.08796
G1 X50.879 Y202.554 E.08525
G1 X53.193 Y202.554 E.08796
G1 X53.456 Y202.501 E.01021
G1 X53.631 Y202.395 E.00778
G1 X53.811 Y202.165 E.01109
G1 X53.879 Y201.868 E.01158
G1 X53.869 Y182.132 E.75008
G1 X53.4 Y182.132 F30000
;TYPE:Outer wall
G1 F3600
G1 X53.331 Y181.978 E.00644
G1 X53.193 Y181.925 E.00561
G1 X50.4 Y181.925 E.10615
G1 X50.4 Y178.725 E.12162
G1 X53.193 Y178.725 E.10615
G1 X53.331 Y178.672 E.00561
G1 X53.4 Y178.52 E.00636
G1 X53.4 Y121.482 E2.1678
G1 X53.33 Y121.327 E.00648
G1 X53.193 Y121.275 E.00557
G1 X50.4 Y121.275 E.10615
G1 X50.4 Y118.075 E.12162
G1 X53.193 Y118.075 E.10615
G1 X53.33 Y118.023 E.00557
G1 X53.4 Y117.868 E.00648
G1 X53.4 Y98.132 E.75009
G1 X53.355 Y98.003 E.00522
G1 X53.193 Y97.925 E.00681
G1 X50.4 Y97.925 E.10615
G1 X50.4 Y94.725 E.12162
G1 X53.193 Y94.725 E.10615
G1 X53.355 Y94.647 E.00681
G1 X53.4 Y94.518 E.00522
G1 X53.4 Y87.02 E.28498
G1 X53.567 Y85.323 E.06481
G1 X54.056 Y83.71 E.06406
G1 X54.851 Y82.223 E.06406
G1 X55.92 Y80.92 E.06406
G1 X57.223 Y79.851 E.06406
G1 X58.71 Y79.056 E.06406
G1 X60.323 Y78.567 E.06406
G1 X62.02 Y78.4 E.06481
G1 X78.518 Y78.4 E.62704
G1 X78.673 Y78.33 E.00648
G1 X78.725 Y78.193 E.00556
G1 X78.725 Y75.4 E.10615
G1 X81.925 Y75.4 E.12162
G1 X81.925 Y78.193 E.10615
G1 X81.977 Y78.33 E.00556
G1 X82.132 Y78.4 E.00648
G1 X101.868 Y78.4 E.75009
G1 X102.024 Y78.329 E.00651
G1 X102.075 Y78.193 E.00553
G1 X102.075 Y75.4 E.10615
G1 X105.275 Y75.4 E.12162
G1 X105.275 Y78.193 E.10615
G1 X105.326 Y78.329 E.00553
G1 X105.482 Y78.4 E.00651
G1 X194.518 Y78.4 E3.38392
G1 X194.674 Y78.329 E.00651
G1 X194.725 Y78.193 E.00553
G1 X194.725 Y75.4 E.10615
G1 X197.925 Y75.4 E.12162
G1 X197.925 Y78.193 E.10615
G1 X197.976 Y78.329 E.00553
G1 X198.132 Y78.4 E.00651
G1 X217.868 Y78.4 E.75009
G1 X218.025 Y78.328 E.00655
G1 X218.075 Y78.193 E.00549
G1 X218.075 Y75.4 E.10615
G1 X221.275 Y75.4 E.12162
G1 X221.275 Y78.193 E.10615
G1 X221.325 Y78.328 E.00549
G1 X221.479 Y78.4 E.00642
G1 X237.98 Y78.4 E.62717
G1 X239.677 Y78.567 E.06481
G1 X241.29 Y79.056 E.06406
G1 X242.777 Y79.851 E.06406
G1 X244.08 Y80.92 E.06406
G1 X245.149 Y82.223 E.06406
G1 X245.944 Y83.71 E.06406
G1 X246.433 Y85.323 E.06406
G1 X246.6 Y87.02 E.06481
G1 X246.6 Y98.693 E.44366
G1 X246.654 Y98.833 E.00569
G1 X246.807 Y98.9 E.00635
G1 X249.6 Y98.9 E.10615
G1 X249.6 Y117.1 E.69171
G1 X246.807 Y117.1 E.10615
G1 X246.665 Y117.156 E.0058
G1 X246.6 Y117.307 E.00624
G1 X246.6 Y182.693 E2.48507
G1 X246.654 Y182.833 E.00569
G1 X246.807 Y182.9 E.00635
G1 X249.6 Y182.9 E.10615
G1 X249.6 Y201.1 E.69171
G1 X246.807 Y201.1 E.10615
G1 X246.665 Y201.156 E.0058
G1 X246.6 Y201.307 E.00624
G1 X246.6 Y212.98 E.44366
G1 X246.433 Y214.677 E.06481
G1 X245.944 Y216.29 E.06406
G1 X245.149 Y217.777 E.06406
G1 X244.08 Y219.08 E.06406
G1 X242.777 Y220.149 E.06406
G1 X241.29 Y220.944 E.06406
G1 X239.677 Y221.433 E.06406
G1 X237.98 Y221.6 E.06481
G1 X217.307 Y221.6 E.78571
G1 X217.167 Y221.654 E.00569
G1 X217.1 Y221.807 E.00635
G1 X217.1 Y224.6 E.10615
G1 X198.9 Y224.6 E.69171
G1 X198.9 Y221.807 E.10615
G1 X198.844 Y221.665 E.0058
G1 X198.696 Y221.6 E.00612
G1 X101.307 Y221.6 E3.70141
G1 X101.167 Y221.654 E.00569
G1 X101.1 Y221.807 E.00635
G1 X101.1 Y224.6 E.10615
G1 X82.9 Y224.6 E.69171
G1 X82.9 Y221.807 E.10615
G1 X82.844 Y221.665 E.0058
G1 X82.693 Y221.6 E.00624
G1 X62.02 Y221.6 E.78571
G1 X60.323 Y221.433 E.06481
G1 X58.71 Y220.944 E.06406
G1 X57.223 Y220.149 E.06406
G1 X55.92 Y219.08 E.06406
G1 X54.851 Y217.777 E.06406
G1 X54.056 Y216.29 E.06406
G1 X53.567 Y214.677 E.06406
G1 X53.4 Y212.98 E.06481
G1 X53.4 Y205.482 E.28498
G1 X53.355 Y205.353 E.00522
G1 X53.193 Y205.275 E.00681
G1 X50.4 Y205.275 E.10615
G1 X50.4 Y202.075 E.12162
G1 X53.193 Y202.075 E.10615
G1 X53.355 Y201.997 E.00681
G1 X53.4 Y201.868 E.00522
G1 X53.4 Y182.172 E.74857
G1 E-.6 F2400
G1 X56.477 Y179.914 Z.4 F30000
G1 X196.853 Y76.896 Z.4
G1 Z.2
G1 E.6 F2400
;TYPE:Bottom surface
;WIDTH:0.500184
G1 F6300
G1 X196.636 Y76.678 E.01169
G1 X196.003 Y76.678 E.02406
G1 X196.649 Y77.338 E.0351
G1 X196.651 Y77.987 E.02466
G1 X195.796 Y77.132 E.04596
G1 E-.6 F2400
G1 X199.611 Y77.027 Z.4 F30000
G1 X219.71 Y76.473 Z.4
G1 Z.2
G1 E.6 F2400
G1 F6300
G1 X219.997 Y76.76 E.01543
G1 X219.999 Y77.408 E.02466
G1 X219.353 Y76.762 E.03475
G1 X219.351 Y77.407 E.02451
G1 X220.207 Y78.263 E.04605
G1 E-.6 F2400
G1 X223.915 Y79.167 Z.4 F30000
G1 X245.003 Y84.306 Z.4
G1 Z.2
G1 E.6 F2400
G1 F6300
G1 X241.104 Y80.406 E.20969
G1 X240.799 Y80.243 E.01315
G1 X240.074 Y80.023 E.02878
G1 X244.977 Y84.926 E.2636
G1 X245.173 Y85.573 E.02573
G1 X245.194 Y85.79 E.00829
G1 X239.21 Y79.806 E.32179
G1 X238.493 Y79.735 E.02741
G1 X245.265 Y86.507 E.36416
G1 X245.322 Y87.211 E.02683
G1 X237.789 Y79.678 E.40502
G1 X237.143 Y79.678 E.02459
G1 X245.322 Y87.857 E.43979
G1 X245.322 Y88.504 E.02459
G1 X236.496 Y79.678 E.47456
G1 X235.849 Y79.678 E.02459
G1 X245.322 Y89.151 E.50934
G1 X245.322 Y89.797 E.02459
G1 X235.203 Y79.678 E.54411
G1 X234.556 Y79.678 E.02459
G1 X245.322 Y90.444 E.57888
G1 X245.322 Y91.091 E.02459
G1 X233.909 Y79.678 E.61365
G1 X233.263 Y79.678 E.02459
M73 P0 R90
G1 X245.322 Y91.737 E.64842
